flaticon/seo-and-analytics/worldwide-10.svg

<svg xmlns="http://www.w3.org/2000/svg" width="32" height="32" viewBox="0 0 24 24">
    <path d="M 23.878906 23.308594 L 21.460938 20.78125 C 22.175781 20.003906 22.617188 18.964844 22.617188 17.816406 C 22.617188 17.453125 22.574219 17.097656 22.492188 16.757812 C 23.210938 15.214844 23.59375 13.523438 23.59375 11.796875 C 23.59375 5.429688 18.53125 0.230469 12.214844 0.0078125 L 12.203125 0 L 11.960938 0 C 11.917969 0 11.835938 0 11.796875 0 C 11.757812 0 11.675781 0 11.632812 0 L 11.390625 0 L 11.378906 0.0078125 C 5.0625 0.230469 0 5.429688 0 11.796875 C 0 14.769531 1.105469 17.492188 2.925781 19.566406 C 2.9375 19.597656 2.953125 19.625 2.96875 19.648438 C 3.007812 19.703125 3.054688 19.742188 3.109375 19.769531 C 5.175781 22.023438 8.109375 23.46875 11.378906 23.585938 L 11.390625 23.59375 L 11.632812 23.59375 C 11.675781 23.59375 11.757812 23.59375 11.796875 23.59375 C 13.765625 23.59375 15.699219 23.097656 17.445312 22.140625 C 17.695312 22.1875 17.957031 22.210938 18.222656 22.210938 C 19.210938 22.210938 20.125 21.878906 20.863281 21.324219 L 23.308594 23.878906 C 23.390625 23.960938 23.472656 24 23.59375 24 C 23.675781 24 23.796875 23.960938 23.878906 23.878906 C 24.039062 23.714844 24.039062 23.472656 23.878906 23.308594 Z M 18.222656 21.398438 C 18.058594 21.398438 17.898438 21.382812 17.742188 21.363281 L 17.492188 21.316406 C 16.035156 20.996094 14.953125 19.839844 14.699219 18.441406 C 14.699219 18.433594 14.699219 18.429688 14.695312 18.421875 C 14.691406 18.382812 14.683594 18.339844 14.679688 18.300781 C 14.675781 18.28125 14.671875 18.261719 14.671875 18.242188 C 14.667969 18.210938 14.664062 18.179688 14.660156 18.148438 C 14.65625 18.117188 14.65625 18.085938 14.652344 18.054688 C 14.652344 18.03125 14.648438 18.007812 14.648438 17.984375 C 14.644531 17.929688 14.644531 17.875 14.644531 17.816406 C 14.644531 15.863281 16.230469 14.238281 18.222656 14.277344 C 19.816406 14.277344 21.175781 15.292969 21.652344 16.785156 C 21.75 17.113281 21.804688 17.457031 21.804688 17.816406 C 21.804688 19.808594 20.21875 21.398438 18.222656 21.398438 Z M 7.761719 17.660156 C 8.933594 17.316406 10.148438 17.125 11.390625 17.089844 L 11.390625 22.539062 C 9.820312 21.167969 8.59375 19.503906 7.761719 17.660156 Z M 11.390625 16.277344 C 10.042969 16.3125 8.722656 16.53125 7.453125 16.917969 C 6.882812 15.429688 6.558594 13.839844 6.515625 12.203125 L 11.390625 12.203125 Z M 0.820312 12.203125 L 5.699219 12.203125 C 5.746094 13.925781 6.082031 15.601562 6.683594 17.175781 C 5.53125 17.59375 4.425781 18.15625 3.382812 18.851562 C 1.859375 17.039062 0.914062 14.730469 0.820312 12.203125 Z M 3.585938 4.503906 C 4.605469 5.160156 5.6875 5.6875 6.816406 6.082031 C 6.132812 7.75 5.75 9.542969 5.699219 11.390625 L 0.820312 11.390625 C 0.917969 8.753906 1.945312 6.351562 3.585938 4.503906 Z M 11.390625 6.09375 C 10.21875 6.0625 9.054688 5.882812 7.933594 5.566406 C 8.757812 3.867188 9.921875 2.332031 11.390625 1.054688 Z M 13.261719 0.910156 C 15.632812 1.226562 17.765625 2.304688 19.410156 3.886719 C 18.476562 4.484375 17.480469 4.960938 16.441406 5.320312 C 15.667969 3.6875 14.59375 2.191406 13.261719 0.910156 Z M 15.660156 5.566406 C 14.539062 5.882812 13.375 6.0625 12.203125 6.09375 L 12.203125 1.054688 C 13.667969 2.332031 14.835938 3.867188 15.660156 5.566406 Z M 7.152344 5.320312 C 6.113281 4.960938 5.117188 4.484375 4.183594 3.886719 C 5.824219 2.304688 7.960938 1.226562 10.332031 0.910156 C 9 2.191406 7.925781 3.6875 7.152344 5.320312 Z M 6.515625 11.390625 C 6.5625 9.625 6.933594 7.914062 7.589844 6.328125 C 8.816406 6.679688 10.089844 6.875 11.390625 6.910156 L 11.390625 11.390625 Z M 12.203125 6.910156 C 13.503906 6.875 14.777344 6.679688 16.003906 6.324219 C 16.660156 7.914062 17.03125 9.625 17.078125 11.390625 L 12.203125 11.390625 Z M 17.894531 11.390625 C 17.84375 9.542969 17.460938 7.746094 16.777344 6.078125 C 17.90625 5.683594 18.984375 5.152344 19.992188 4.488281 C 21.640625 6.335938 22.675781 8.746094 22.769531 11.390625 Z M 3.929688 19.457031 C 4.894531 18.8125 5.921875 18.296875 6.988281 17.914062 C 7.773438 19.6875 8.902344 21.308594 10.332031 22.683594 C 7.835938 22.347656 5.605469 21.175781 3.929688 19.457031 Z M 16.351562 21.804688 C 15.050781 22.398438 13.648438 22.71875 12.203125 22.773438 L 12.203125 12.203125 L 22.769531 12.203125 C 22.726562 13.390625 22.492188 14.542969 22.0625 15.664062 C 21.359375 14.40625 20.054688 13.535156 18.527344 13.433594 C 18.527344 13.433594 18.527344 13.433594 18.523438 13.433594 C 18.480469 13.429688 18.4375 13.429688 18.394531 13.425781 C 18.382812 13.425781 18.375 13.425781 18.363281 13.425781 C 18.316406 13.425781 18.269531 13.421875 18.222656 13.421875 C 15.78125 13.421875 13.832031 15.375 13.832031 17.816406 C 13.832031 17.867188 13.832031 17.917969 13.832031 17.96875 C 13.832031 17.972656 13.832031 17.980469 13.835938 17.984375 C 13.894531 19.570312 14.777344 20.933594 16.074219 21.65625 C 16.085938 21.664062 16.101562 21.667969 16.113281 21.675781 C 16.117188 21.679688 16.121094 21.679688 16.125 21.683594 C 16.199219 21.726562 16.273438 21.765625 16.351562 21.804688 Z M 16.351562 21.804688"/>
</svg>

<svg xmlns="http://www.w3.org/2000/svg" width="32" height="32" viewBox="0 0 24 24">
    <path d="M23.879 23.309L21.46 20.78a4.364 4.364 0 0 0 1.156-2.965c0-.363-.043-.718-.125-1.058a11.749 11.749 0 0 0 1.102-4.961C23.594 5.43 18.53.23 12.214.007L12.205 0H11.39l-.012.008C5.063.23 0 5.43 0 11.797c0 2.973 1.105 5.695 2.926 7.77a.377.377 0 0 0 .184.203c2.066 2.253 5 3.699 8.269 3.816l.012.008h.406c1.969 0 3.902-.496 5.648-1.453a4.385 4.385 0 0 0 3.418-.816l2.446 2.554a.37.37 0 0 0 .285.121c.082 0 .203-.04.285-.121a.399.399 0 0 0 0-.57zm-5.656-1.91c-.164 0-.325-.016-.48-.036l-.25-.047a3.62 3.62 0 0 1-2.794-2.875c0-.007 0-.011-.004-.02l-.015-.12a.301.301 0 0 1-.008-.059l-.012-.094c-.004-.03-.004-.062-.008-.093 0-.024-.004-.047-.004-.07-.003-.055-.003-.11-.003-.169 0-1.953 1.585-3.578 3.578-3.539a3.578 3.578 0 0 1 3.43 2.508c.097.328.152.672.152 1.031a3.562 3.562 0 0 1-3.582 3.582zM7.762 17.66a14.304 14.304 0 0 1 3.629-.57v5.45a14.257 14.257 0 0 1-3.63-4.88zm3.629-1.383a14.821 14.821 0 0 0-3.938.641 14.205 14.205 0 0 1-.937-4.715h4.875zM.82 12.203h4.878c.047 1.723.383 3.399.985 4.973-1.153.418-2.258.98-3.301 1.676A10.931 10.931 0 0 1 .82 12.203zm2.765-7.7a15.27 15.27 0 0 0 3.23 1.579A15.07 15.07 0 0 0 5.7 11.391H.82a10.958 10.958 0 0 1 2.766-6.887zm7.805 1.59a14.132 14.132 0 0 1-3.457-.527 14.162 14.162 0 0 1 3.457-4.511zM13.26.91a10.956 10.956 0 0 1 6.15 2.977 13.96 13.96 0 0 1-2.97 1.433 15.081 15.081 0 0 0-3.18-4.41zm2.4 4.656a14.132 14.132 0 0 1-3.458.528v-5.04a14.218 14.218 0 0 1 3.457 4.512zM7.151 5.32a13.96 13.96 0 0 1-2.968-1.433A10.944 10.944 0 0 1 10.332.91a15.081 15.081 0 0 0-3.18 4.41zm-.636 6.07A14.213 14.213 0 0 1 7.59 6.329c1.226.352 2.5.547 3.8.582v4.48zm5.687-4.48c1.3-.035 2.574-.23 3.8-.586.657 1.59 1.028 3.301 1.075 5.067h-4.875zm5.692 4.48a15.092 15.092 0 0 0-1.118-5.312 14.576 14.576 0 0 0 3.215-1.59 10.93 10.93 0 0 1 2.778 6.903zM3.93 19.458a14.052 14.052 0 0 1 3.058-1.543 15.092 15.092 0 0 0 3.344 4.77 10.98 10.98 0 0 1-6.402-3.227zm12.422 2.348a10.95 10.95 0 0 1-4.149.968v-10.57H22.77a10.679 10.679 0 0 1-.707 3.461 4.373 4.373 0 0 0-3.536-2.23h-.004c-.043-.004-.085-.004-.128-.008h-.032c-.047 0-.093-.004-.14-.004a4.373 4.373 0 0 0-4.391 4.394v.153c0 .004 0 .011.004.015a4.373 4.373 0 0 0 2.238 3.672c.012.008.028.012.04.02.003.004.007.004.011.008.074.043.148.082.227.12zm0 0"/>
</svg>
